app/dist/common/images/kingclean-electric-coltd.svg

<svg height="18" viewBox="0 0 18 18" width="18" xmlns="http://www.w3.org/2000/svg"><path d="m0 0h18v18h-18z" fill="#f0f3fa"/><path d="m9.43 11.15c.43.57 1.11.85 2.05.85.83 0 1.53-.2 2.08-.6.47-.34.82-.8 1.06-1.4l-1.55-.25a1.48 1.48 0 0 1 -1.38.87c-.85 0-1.15-.56-.9-1.7.1-.47.3-.84.58-1.12a1.4 1.4 0 0 1 1.02-.42c.3 0 .53.08.7.23.15.13.25.3.28.53l1.63-.31a1.9 1.9 0 0 0 -.63-1.23 2.7 2.7 0 0 0 -1.82-.6 3.4 3.4 0 0 0 -3.45 2.78c-.22 1.01-.11 1.8.32 2.37zm-2.17-5.15h1.74l-2.38 2.51 1.32 3.49h-1.6l-.86-2.43-.77.72-.31 1.71h-1.4l1.06-6h1.4l-.41 2.37z" fill="#013d83"/></svg>

<!-- by TradingView --><svg width="18" height="18" viewBox="0 0 18 18" xmlns="http://www.w3.org/2000/svg"><path fill="#F0F3FA" d="M0 0h18v18H0z"/><path d="M9.43 11.15c.43.57 1.11.85 2.05.85.83 0 1.53-.2 2.08-.6.47-.34.82-.8 1.06-1.4l-1.55-.25a1.48 1.48 0 0 1-1.38.87c-.85 0-1.15-.56-.9-1.7.1-.47.3-.84.58-1.12a1.4 1.4 0 0 1 1.02-.42c.3 0 .53.08.7.23.15.13.25.3.28.53L15 7.83a1.9 1.9 0 0 0-.63-1.23 2.7 2.7 0 0 0-1.82-.6A3.4 3.4 0 0 0 9.1 8.78c-.22 1.01-.11 1.8.32 2.37ZM7.26 6H9L6.62 8.51 7.94 12h-1.6l-.86-2.43-.77.72L4.4 12H3l1.06-6h1.4l-.41 2.37L7.26 6Z" fill="#013D83"/></svg>
